X:87
T:O Virgo Splendens
C:Llibre Vermell de Montserrat
R:Livre
O:XIVe
M:6/8
L:1/8
K:C
%%%continueall 1
%%%maxshrink 0.55
%%barsperstaff 5
%%staves [1 2 3]
V:1
FGF AGA | FGF FDE | DCD D2z | DCD FGF | AGA FAG | AcA A2z |
BcA AGA | cdA AFE | DCD D2z | GFD FGF | EDF DAG | FGA A2z |
GAA cBc | cdA FDE | FGD D2z | EDD CDC | EDD AAG | AGA A2z |
CDF GFE | CDD DFG | FED D2z | GFA GAB | cAF AAG | Acd A2z |
dcB BAG | AAF FGF | FAG A2z | GAA Bcd | AFF DCD | FFE D2z |
GFD DED | DDF AAG | FDC D2z | CDF FGF | AFA cAB |
ABc A2z | GAF FEF | DAD CDE | DDC D2z | z6 | 
z6 | z6 | z6 | z6 | z6 |] 
V:2
z6 | z6 | z6 | FGF AGA | FGF FDE | DCD D2z | 
DCD FGF | AGA FAG | AcA A2z |BcA AGA | cdA AFE | DCD D2z | 
GFD FGF | EDF DAG | FGA A2z | GAA cBc | cdA FDE | FGD D2z | 
EDD CDC | EDD AAG | AGA A2z | CDF GFE | CDD DFG | FED D2z | 
GFA GAB | cAF AAG | Acd A2z | dcB BAG | AAF FGF | FAG A2z | 
GAA Bcd | AFF DCD | FFE D2z | GFD DED | DDF AAG | FDC D2z | 
CDF FGF | AFA cAB | ABc A2z | GAF FEF | DAD CDE | DDC D2z | z6 | z6 | z6 |] 
V:3
z6 | z6 | z6 | z6 | z6 | z6 | 
FGF AGA | FGF FDE | DCD D2z | DCD FGF | AGA FAG | AcA A2z |
BcA AGA | cdA AFE | DCD D2z | GFD FGF | EDF DAG | FGA A2z |
GAA cBc | cdA FDE | FGD D2z | EDD CDC | EDD AAG | AGA A2z |
CDF GFE | CDD DFG | FED D2z | GFA GAB | cAF AAG | Acd A2z |
dcB BAG | AAF FGF | FAG A2z | GAA Bcd | AFF DCD | FFE D2z |
GFD DED | DDF AAG | FDC D2z | CDF FGF | AFA cAB |
ABc A2z | GAF FEF | DAD CDE | DDC D2z |] 




%%header "$P0	 $IR 	$P1"
%%footer $D - Éditions Galouvielle - 2009 - À usage librement privé dans le cadre familial

